X:64
T:T037- Irish Morshaw
S:Brysson's Curious Collection (1791)
Q:1/4=120
L:1/8
M:6/8
K:G
D|GBB BGB|Bdd dBd|dge dge|dcB B2A|BGG GBF|\
Bdd dBd|dge dcB|BAAA2::D|ABc cdc|cdc~c3|Bcd ded|\
ded~d3|dBc dge|dBc dge|dcB AGF|GAGG2:|]

